X:1
T: Irish Rovers
T: Tune 1
R:Reel
Q: 232
K:A
M:4/4
L:1/8
E3C|A,4 C2 D2|E4 A2 B2|c4 B2 G2|A4 G2 F2|E4 F2 E2|C4 D2 C2|B,4 E3F|E2 D2 C2 B,2|
A,4 C2 D2|E4 A2 B2|c4 B2 G2|A4 G2 F2|E4 F2 D2|C4 D2 B,2|A,4 A,3B,|A,4 ((3EFG)|
A2 A4 B2|c4 c2 A2|B3c B2 G2|E2 E2 F2 G2|A2 A4 B2|c4 c2 A2|B3c B2 G2|E2 D2 C2 B,2|
A,4 C2 D2|E4 A2 B2|c4 B2 A2|F4 C3B,|A,4 C2 E2|A4 c4|B8 A4||
